src/components/Icon/utils/svgsOptimized/search.svg

<svg width="24" height="24" viewBox="0 0 24 24"  xmlns="http://www.w3.org/2000/svg">
<path d="M17.7812 16.72L14.4012 13.34C14.9512 12.58 15.2812 11.65 15.2812 10.64C15.2812 8.08 13.2012 6 10.6412 6C8.08122 6 6.00122 8.08 6.00122 10.64C6.00122 13.2 8.08122 15.28 10.6412 15.28C11.6512 15.28 12.5812 14.95 13.3412 14.4L16.7212 17.78C16.8712 17.93 17.0612 18 17.2512 18C17.4412 18 17.6312 17.93 17.7812 17.78C18.0712 17.49 18.0712 17.01 17.7812 16.72ZM7.50122 10.64C7.50122 8.91 8.91122 7.5 10.6412 7.5C12.3712 7.5 13.7812 8.91 13.7812 10.64C13.7812 12.37 12.3712 13.78 10.6412 13.78C8.91122 13.78 7.50122 12.37 7.50122 10.64Z" />
</svg>

<?xml version="1.0" encoding="utf-8"?><svg width="24" height="24" xmlns="http://www.w3.org/2000/svg" viewBox="0 0 24 24"><path d="m17.781 16.72-3.38-3.38c.55-.76.88-1.69.88-2.7 0-2.56-2.08-4.64-4.64-4.64-2.56 0-4.64 2.08-4.64 4.64 0 2.56 2.08 4.64 4.64 4.64 1.01 0 1.94-.33 2.7-.88l3.38 3.38c.15.15.34.22.53.22s.38-.07.53-.22c.29-.29.29-.77 0-1.06Zm-10.28-6.08c0-1.73 1.41-3.14 3.14-3.14 1.73 0 3.14 1.41 3.14 3.14 0 1.73-1.41 3.14-3.14 3.14-1.73 0-3.14-1.41-3.14-3.14Z"/></svg>
